static/img/kroki/1e7a60e519521c7656e454ab89eeee8e.svg

<?xml version="1.0" encoding="us-ascii" standalone="no"?><svg xmlns="http://www.w3.org/2000/svg" xmlns:xlink="http://www.w3.org/1999/xlink" contentStyleType="text/css" height="152px" preserveAspectRatio="none" style="width:340px;height:152px;" version="1.1" viewBox="0 0 340 152" width="340px" zoomAndPan="magnify"><defs/><g><!--class azure_capacity_reservation_group--><g id="elem_azure_capacity_reservation_group"><rect codeLine="22" fill="#3D176E" height="39.7891" id="azure_capacity_reservation_group" rx="2.5" ry="2.5" style="stroke:#000D19;stroke-width:0.5;" width="326" x="7" y="7"/><ellipse cx="22" cy="26.8945" fill="#ADD1B2" rx="11" ry="11" style="stroke:#181818;stroke-width:1.0;"/><path d="M24.9688,32.5352 Q24.3906,32.832 23.75,32.9727 Q23.1094,33.1289 22.4063,33.1289 Q19.9063,33.1289 18.5781,31.4883 Q17.2656,29.832 17.2656,26.707 Q17.2656,23.582 18.5781,21.9258 Q19.9063,20.2695 22.4063,20.2695 Q23.1094,20.2695 23.75,20.4258 Q24.4063,20.582 24.9688,20.8789 L24.9688,23.5977 Q24.3438,23.0195 23.75,22.7539 Q23.1563,22.4727 22.5313,22.4727 Q21.1875,22.4727 20.5,23.5508 Q19.8125,24.6133 19.8125,26.707 Q19.8125,28.8008 20.5,29.8789 Q21.1875,30.9414 22.5313,30.9414 Q23.1563,30.9414 23.75,30.6758 Q24.3438,30.3945 24.9688,29.8164 L24.9688,32.5352 Z " fill="#000000"/><text fill="#D9B8FF" font-family="Helvetica" font-size="17" lengthAdjust="spacing" textLength="284" x="41" y="32.7798">azure_capacity_reservation_group</text></g><!--class azure_virtual_machine--><g id="elem_azure_virtual_machine"><rect codeLine="24" fill="#3D176E" height="39.7891" id="azure_virtual_machine" rx="2.5" ry="2.5" style="stroke:#000D19;stroke-width:0.5;" width="233" x="53.5" y="106.79"/><ellipse cx="68.5" cy="126.6845" fill="#ADD1B2" rx="11" ry="11" style="stroke:#181818;stroke-width:1.0;"/><path d="M71.4688,132.3252 Q70.8906,132.622 70.25,132.7627 Q69.6094,132.9189 68.9063,132.9189 Q66.4063,132.9189 65.0781,131.2783 Q63.7656,129.622 63.7656,126.497 Q63.7656,123.372 65.0781,121.7158 Q66.4063,120.0595 68.9063,120.0595 Q69.6094,120.0595 70.25,120.2158 Q70.9063,120.372 71.4688,120.6689 L71.4688,123.3877 Q70.8438,122.8095 70.25,122.5439 Q69.6563,122.2627 69.0313,122.2627 Q67.6875,122.2627 67,123.3408 Q66.3125,124.4033 66.3125,126.497 Q66.3125,128.5908 67,129.6689 Q67.6875,130.7314 69.0313,130.7314 Q69.6563,130.7314 70.25,130.4658 Q70.8438,130.1845 71.4688,129.6064 L71.4688,132.3252 Z " fill="#000000"/><text fill="#D9B8FF" font-family="Helvetica" font-size="17" lengthAdjust="spacing" textLength="191" x="87.5" y="132.5698">azure_virtual_machine</text></g><!--link azure_capacity_reservation_group to azure_virtual_machine--><g id="link_azure_capacity_reservation_group_azure_virtual_machine"><path codeLine="26" d="M170,47.22 C170,64.36 170,83.27 170,100.41 " fill="none" id="azure_capacity_reservation_group-to-azure_virtual_machine" style="stroke:#1A83AF;stroke-width:2.0;"/><polygon fill="#1A83AF" points="170,106.41,174,97.41,170,101.41,166,97.41,170,106.41" style="stroke:#1A83AF;stroke-width:2.0;"/></g><!--SRC=[XP1FQy904CNlVee5pq9IQQENGXIalKYflPKInjrPivZiXjc9egNVlOssPKtySvttcpVlJMuK2YmhteaIooMIx_criHKGb28bSjkfAno9ljQWXqbRd3dBDu4vb2YUiDWW6mbjuYqtSctHUt4NI1EGwnMvsggZFHDO_oEXvO2Q5k1zoancMJC6OTHuETAwJRPD-qCL9m_OmHmff5yaYY8LZzl8pLDNU_yJ2xD74OTFcpl6JipEYGDrDML3124xHV_qYnbVG2bZL-8-cBqUCv55EfalSb1ksz0Q2X-UyOo4ZdSLJZkjS3nIEZaBFr-2PVCv0VkQC9DGWJIyomWzqWROE9irIvNux7sTe1j3N4EHbI1pO_6WtpGPlFVZT3HCPn-3n_C-tm00]--></g></svg>

<svg xmlns="http://www.w3.org/2000/svg" width="340" height="152" viewBox="0 0 340 152"><rect width="326" height="39.789" x="7" y="7" fill="#3D176E" rx="2.5" ry="2.5" style="stroke:#000d19;stroke-width:.5"/><circle cx="22" cy="26.895" r="11" fill="#ADD1B2" style="stroke:#181818;stroke-width:1"/><path d="M24.969 32.535q-.578.297-1.219.438-.64.156-1.344.156-2.5 0-3.828-1.64-1.312-1.657-1.312-4.782t1.312-4.781q1.328-1.656 3.828-1.656.703 0 1.344.156.656.156 1.219.453v2.719q-.625-.578-1.219-.844-.594-.281-1.219-.281-1.343 0-2.031 1.078-.687 1.062-.687 3.156t.687 3.172q.688 1.062 2.031 1.062.625 0 1.219-.265.594-.281 1.219-.86z"/><text x="41" y="32.78" fill="#D9B8FF" font-family="Helvetica" font-size="17" textLength="284">azure_capacity_reservation_group</text><rect width="233" height="39.789" x="53.5" y="106.79" fill="#3D176E" rx="2.5" ry="2.5" style="stroke:#000d19;stroke-width:.5"/><circle cx="68.5" cy="126.684" r="11" fill="#ADD1B2" style="stroke:#181818;stroke-width:1"/><path d="M71.469 132.325q-.578.297-1.219.438-.64.156-1.344.156-2.5 0-3.828-1.64-1.312-1.657-1.312-4.782t1.312-4.781q1.328-1.656 3.828-1.656.703 0 1.344.156.656.156 1.219.453v2.719q-.625-.579-1.219-.844-.594-.281-1.219-.281-1.344 0-2.031 1.078-.687 1.062-.687 3.156t.687 3.172q.688 1.062 2.031 1.062.625 0 1.219-.265.594-.281 1.219-.86z"/><text x="87.5" y="132.57" fill="#D9B8FF" font-family="Helvetica" font-size="17" textLength="191">azure_virtual_machine</text><path fill="none" d="M170 47.22v53.19" style="stroke:#1a83af;stroke-width:2"/><path fill="#1A83AF" d="m170 106.41 4-9-4 4-4-4z" style="stroke:#1a83af;stroke-width:2"/></svg>
